X:3271
T:Compilments to Cameron Chisholm
R:march
C:Brenda Stubbert, SOCAN
O:20th century Cape Breton
S:Tune of the Month, March 1999
A:http://www.capebretonisland.com/Music/Stubbert
N: Composed for Margaree fiddler Cameron Chisholm
N:Contacts ...
N:Recordings and bookings
N:..... <brenda@cranfordpub.com
N:Tune books and related recordings
N:..... Cranford Publications <http://www.cranfordpub.com>
H:Copyrights:Published by Stubbert Music, and Cranford Publications
Z:Paul Stewart Cranford 
Q:288
L:1/8
M:C|
K:D
f<g|a3 b a>gf<e|d2 A2 A2 A=c|B2 B<d g>ef<d|f2 e2 e2 f<g|!
a3 b a>gf<e|d2 A2 A2 A=c|B<dg>f f>ed<c|d4 d2:|!
|:d>c|B>GB<d g3 B|A>FA<d f3 A|G>EGef<d|[1f2 e2 e2 d>c|!
B>GB<d g3 B|A>FA<d f2 {f}a2|g>fe<d c>ae<c|d4 d2:|!
[2f2 e2 e2 f<g|a2 agf<e|d2 A2 A2 A=c|B<dg>f f>ed<c|d4 d2:|!
